X: 97
T:Gathering Peascods
M:C|
L:1/8
Q:180
N:The first four bars of the tune are identical to "All in a Garden
N:Green".
H:Peascods were, of course, peapods.  In his "Observations on the Popular
H:Antiquities of Great Britain" (1849), John Brand discusses "Peascod
H:wooing" and an old tradition of divining love affairs from pea pods.
K:G
d2dd|B>cdd|edcB|A3B|AGGF|1 G4:|2 G3G||
FDFG|A2BA|G/2A/2 BAG|F3F|ED E>D|1 D3G:|2 D3d||
BGG A/2B/2|c3c|BGG A/2B/2|c3c|BGG A/2B/2|c>de d/2c/2|B c/2B/2 A>G
|1 G3d:|2 G4||
